dist/icons/svgs/file-export-solid.svg

<svg xmlns="http://www.w3.org/2000/svg" width="24" height="24" fill="currentcolor" class="icon-file-export-solid" viewBox="0 0 24 24">
  <path d="M1.25 4.5C1.25 3.13281 2.34375 2 3.75 2H10V7C10 7.70312 10.5469 8.25 11.25 8.25H16.25V13.25H9.6875C9.14062 13.25 8.75 13.6797 8.75 14.1875C8.75 14.7344 9.14062 15.125 9.6875 15.125H16.25V19.5C16.25 20.9062 15.1172 22 13.75 22H3.75C2.34375 22 1.25 20.9062 1.25 19.5V4.5ZM16.25 15.125V13.25H20.5469L19.0234 11.7266C18.6328 11.375 18.6328 10.7891 19.0234 10.4375C19.375 10.0469 19.9609 10.0469 20.3516 10.4375L23.4766 13.5625C23.8281 13.9141 23.8281 14.5 23.4766 14.8516L20.3516 17.9766C19.9609 18.3672 19.375 18.3672 19.0234 17.9766C18.6328 17.625 18.6328 17.0391 19.0234 16.6875L20.5469 15.1641H16.25V15.125ZM16.25 7H11.25V2L16.25 7Z"/>
</svg>

<svg xmlns="http://www.w3.org/2000/svg" width="24" height="24" fill="currentColor" class="icon-file-export-solid" viewBox="0 0 24 24">
  <path d="M1.25 4.5c0-1.367 1.094-2.5 2.5-2.5H10v5c0 .703.547 1.25 1.25 1.25h5v5H9.688a.925.925 0 0 0-.938.938c0 .546.39.937.938.937h6.562V19.5c0 1.406-1.133 2.5-2.5 2.5h-10a2.47 2.47 0 0 1-2.5-2.5zm15 10.625V13.25h4.297l-1.524-1.523a.856.856 0 0 1 0-1.29c.352-.39.938-.39 1.329 0l3.125 3.126a.92.92 0 0 1 0 1.289l-3.125 3.125c-.391.39-.977.39-1.329 0a.856.856 0 0 1 0-1.29l1.524-1.523H16.25zm0-8.125h-5V2z"/>
</svg>
